!!!XEN: Origin of the Bi'jikiwuck' [cattle herb medicine]
!!!AGN: Song connected with Odjib'we's personal experience in war
!!!COM: Anonymous
!!!CNT: Native American -- Ojibway
!!!TXO: Ojibway
!!!MLC: White Earth reservation, northern Minnesota, U.S.A.
!!!MRD: 1909-1912///
!!!MPN: Odjib'we (Ojibway)
**kern
*MM100
*Imale
*k[b-e-a-d-g-c-]
*clefF4
*M3/4
8d-
8d-
=1
4e-
8e-
8d-
8d-
8d-
=2
4d-
4A-
8d-
8d-
=3
4d-
8d-
8c-
8A-
8A-
=4
4A-
4G-
8G-
8G-
=5
4G-
4D-
8c-
8c-
=6
4c-
8c-
8A--
8G-
8G-
=7
4G-
4D-
8G-
8G-
=8
4G-
8G-
8F-
8D-
8D-
=9
4D-
4BB-
==
*-
!!!OCL: Frances Densmore
!!!YOR: Chippewa [i.e., Ojibway] Music--II, Bulletin 53 of the Bureau of American Ethnology, Smitsonian Institution
!!!ONM: 22
!!!PPG: 99
!!!PUB: published
!!!PPR: Government Printing Office
!!!PPP: Washington, D.C.
!!!PDT: 1912///
!!!EST: missing clef changes, text, drum tempo, and drum part
!!!YEC: Copyright 1998 Paul von Hippel
!!!YEM: Rights to all derivate electronic formats reserved.
!!!EFL: 24/42
